X: 3298
T: UP IN THE MORNIN' EARLY
%R: jig
B: James Kerr "Merry Melodies" v.3 p.32 #298
Z: 2016 John Chambers <jc:trillian.mit.edu>
M: 6/8
L: 1/8
K: Em
B, |\
E2F G2A | Bcd D2D | EFG BAF | E3 B2B, |\
E2E G2A | Bcd D2D | EFG BAF | E3 B2 :|
|: G |\
GAG G2G | ABA A2A | Bcd edc | B3 d2D |\
GAG GAG | ABd edc | BAG FE^D | E3 B2 :|

%%sep 1 1 500
%%sep 1 1 500

